!!!!SEGMENT: pl-wtm--r-93-n_noskowski-zygmunt--spiew-towarzyszow-polskich.krn
!!!cenid: 18xx:2134
!!!COM: Noskowski, Zygmunt
!!!COM-rism: pe106604
!!!CDT: 1846/05/02-1909/07/23
!!!CNT: Polish
!!!OTL: Śpiew towarzyszów polskich
!!!PDT: 1846
!!!AGN: Secular
!!!SMS-siglum: PL-Wtm
!!!SMS-shelfmark: R 93/N
!!!NIFC-rismID: 1001100139
!!!URL-scan: http://repozytorium.nifc.pl/skany/pl-wtm-nut--r93n
!!!ONB-nifc:
!!!SMS-variant:
!!!SMS-altvar:
**kern	**kern	**dynam	**kern	**text	**text	**dynam
*part2	*part2	*part2	*part1	*part1	*part1	*part1
*staff3	*staff2	*	*staff1	*staff1	*staff1	*
*	*I"[Fortepiano]	*	*I"[Voce]	*	*	*
*I'pf	*I'pf	*	*I'V	*	*	*
*clefF4	*clefG2	*	*clefG2	*	*	*
*k[b-e-a-]	*k[b-e-a-]	*	*k[b-e-a-]	*	*	*
*M3/4	*M3/4	*	*M3/4	*	*	*
=1	=1	=1	=1	=1	=1	=1
!	!LO:TX:t=P:problem:all\right (except 2\)	!	!	!	!	!
!	!LO:TX:a:t=Wolno.	!	!	!	!	!
4FFF/ 4FF	8.cc^\L 8.aa- 8.ccc	mf	2.r	.	.	.
.	16cc\Jk 16aa- 16ccc	.	.	.	.	.
4C\ 4F 4A-	4b-\ 4gg 4bb-	.	.	.	.	.
4C\ 4F 4A-	4a-\ 4ff 4aa-	.	.	.	.	.
=2	=2	=2	=2	=2	=2	=2
4GG\ 4C 4E- 4G	4g\ 4ee- 4gg	.	2.r	.	.	.
4AA-\ 4C 4E- 4A-	4cc\ 4aa- 4ccc	.	.	.	.	.
4r	4r	.	.	.	.	.
=3	=3	=3	=3	=3	=3	=3
!	!LO:TX:a:t=żywo	!	!	!	!	!
8DDD-X^>/L 8DD-X	8.r	f	2.r	.	.	.
16r	.	.	.	.	.	.
16FFF/Jk 16FF	16a-\ 16aa-	.	.	.	.	.
4GGG^>/ 4GG	4g^\ 4cc 4ee- 4gg	.	.	.	.	.
4GG^>/ 4G	4dn^>/ 4f 4g 4bn	.	.	.	.	.
=4	=4	=4	=4	=4	=4	=4
4C/	4c^>/ 4e- 4g 4cc	.	2.r;	.	.	.
4CC^>/ 4C	4cc^\ 4ee- 4gg 4ccc	.	.	.	.	.
4r;	4r;	.	.	.	.	.
=5!|:	=5!|:	=5!|:	=5!|:	=5!|:	=5!|:	=5!|:
!	!	!	!LO:TX:a:t=Wolno	!	!	!
4CC/ 4C	4r	p	8.c/	1. Na-	2. Al-	.
.	.	.	16d/	-sze	-boś-	.
4r	4G/ 4c 4e-	.	4e-/	ski-	-my	.
4r	4G/ 4c 4e-	.	4e-/	-by,	to	.
=6	=6	=6	=6	=6	=6	=6
4FFF/ 4FF	4r	.	8.f/	na-	ja-	.
.	.	.	16g/	-sze	-cy	.
4r	4A-/ 4c 4f	.	4a-/	ła-	ta-	.
4r	4A-/ 4c 4f	.	4a-/	-ny	-cy	.
!LO:LB:g=original	!	!	!	!	!	!
=7	=7	=7	=7	=7	=7	=7
4BBB-/ 4BB-	4r	.	8.a-/	Ta-	By	.
.	.	.	16an/	-kie	w roz-	.
4r	4A-/ 4d 4f	.	4.b-\	buj-	-pa-	.
4r	4A-/ 4d 4f	.	.	.	.	.
.	.	.	8f/	-ne,	-czy	.
=8	=8	=8	=8	=8	=8	=8
4EE-/ 4E-	4r	.	8.a-X/	szczo-	śnić	.
.	.	.	16g/	-dre	i	.
4r	4G/ 4B- 4e-	.	2g/	są,	gnić!	.
4r	4G/ 4B- 4e-	.	.	.	.	.
=9	=9	=9	=9	=9	=9	=9
4EE-/ 4E-	4r	.	8.e-/	Choć	Do	.
.	.	.	16f/	ich	na-	.
4r	4G/ 4B- 4e-	.	4g/	każ-	-u-	.
4r	4G/ 4B- 4e-	.	4g/	-dy	-ki	.
=10	=10	=10	=10	=10	=10	=10
4AAA-/ 4AA-	4r	.	8.a-/	proch	i	.
.	.	.	16b-\	o-	do	.
4r	4A-/ 4c 4en	.	4cc\	-bla-	pra-	.
4r	4A-/ 4c 4f	.	4cc\	-ny	-cy!	.
!LO:LB:g=original	!	!	!	!	!	!
=11	=11	=11	=11	=11	=11	=11
8AAA-/ 8AA-	8A-^>/ 8c 8f	f	8cc\	Cie-	A	.
8c^\L	8cc^>/L	mf	8cc\	-płą	bę-	.
8B-^\	8b-^>/	.	8b-\	przo-	-dzie-	.
8A-^\	8a-^>/	.	8a-/	-dków	-my	.
8E-^\	8e-^>/	.	8e-/	na-	jesz-	.
8F^\J	8f^>/J	.	8f/	-szych	-cze	.
=12	=12	=12	=12	=12	=12	=12
!LO:tup:a	!	!	!	!	!	!
12GG\L 12D 12G	12Bn/L 12d 12g	f	2.g/	krwią.	żyć.	.
12GG\ 12D 12G	12B/ 12d 12g	.	.	.	.	.
12GG\J 12D 12G	12B/J 12d 12g	.	.	.	.	.
4GG^>/ 4D 4G	4B^>/ 4d 4g	.	.	.	.	.
4GG^>/ 4D 4G	4B^>/ 4d 4g	.	.	.	.	.
*	*clefF4	*	*	*	*	*
=13	=13	=13	=13	=13	=13	=13
*^	*	*	*	*	*	*
!	!	!LO:tup:a	!	!	!	!	!
8DDD/ 8DD	4ryy	12D\L	pp	8.d/	Rdza-	Kto	.
.	.	12D\	.	.	.	.	.
8r	.	.	.	.	.	.	.
.	.	12D\J	.	.	.	.	.
.	.	.	.	16d/	-we	tej	.
4e-^/	2F#X\ 2An 2c	4D^\	.	4e-/	sza-	zie-	.
4d^/	.	4D^\	.	8d/	-ble,	-mi	.
.	.	.	.	8r	.	.	.
!!linebreak:original
=14	=14	=14	=14	=14	=14	=14	=14
!	!	!LO:tup:a	!	!	!	!	!
8DDD/ 8DD	4ryy	12D\L	.	8.b-\	bla-	le-	.
.	.	12D\	.	.	.	.	.
8r	.	.	.	.	.	.	.
.	.	12D\J	.	.	.	.	.
.	.	.	.	16b-\	-de	-pszym	.
*clefG2	*	*	*	*	*	*	*
4an^/	2B-\ 2d	4D^\	.	4an/	koś-	sy-	.
4g^/	.	4D^\	.	4g/	-ci,	-nem,	.
*clefF4	*	*	*	*	*	*	*
!LO:LB:g=original	!	!	!	!	!	!	!
=15	=15	=15	=15	=15	=15	=15	=15
!	!	!LO:tup:a	!	!	!	!	!
8DDD/ 8DD	4ryy	12D\L	.	8.an/	Dzień	Czy	.
.	.	12D\	.	.	.	.	.
8r	.	.	.	.	.	.	.
.	.	12D\J	.	.	.	.	.
.	.	.	.	16d/	w dzień	ten	.
4e-^/	2F#X\ 2An 2c	4D^\	.	4e-/	w zie-	co	.
4d^/	.	4D^\	.	4d/	-mi	wciąż	.
*v	*v	*	*	*	*	*	*
=16	=16	=16	=16	=16	=16	=16
!	!LO:tup:a	!	!	!	!	!
8GGG/ 8GG	12D\L	.	8.c/ 8.b-	trą-	pła-	.
.	12D\	.	.	.	.	.
8r	.	.	.	.	.	.
.	12D\J	.	.	.	.	.
.	.	.	16B-/ 16an	-ca	-cze	.
4D\ 4G 4B-	4D^\	.	2G/ 2g	pług,	strat,	.
4FFn/ 4Fn	4D^\	.	.	.	.	.
*	*clefG2	*	*	*	*	*
=17	=17	=17	=17	=17	=17	=17
4.EE-/ 4.E-	4.e-/	p	4.e-/	To	Czy	.
8EE-/L 8E-	8e-/L	.	8e-/	są	ten,	.
!	!	!LO:HP:b:t=cres	!	!	!	!
8FF/ 8F	8f/	<	8f/	na-	co	.
8GG/J 8G	8g/J	[	8g/	-szych	choć	.
=18	=18	=18	=18	=18	=18	=18
8AA-\L 8A-	8a-/L	.	8a-/	krzywd	dro-	.
8BB-\J 8B-	8b-/J	.	8b-\	świę-	-bnym	.
4C\ 4c	4cc\	f	4cc\	-to-	czy-	.
4C\ 4c	4cc\	.	4cc\	-ści	-nem	.
!LO:PB:g=original	!	!	!	!	!	!
=19	=19	=19	=19	=19	=19	=19
8C^\L 8c	8cc^\L	.	8cc\	I	O	.
8C^\J 8c	8cc^\J	.	8cc\	od-	jej	.
8BB-^\L 8B-	8b-^/L	>	8b-\	-pła-	ży-	.
8AA-^\J 8A-	8a-^/J	]	8a-/	-ty	-ciu	.
8EE-^>/L 8E-	8e-^/L	.	8e-/	świę-	da-	.
8FF^>/J 8F	8f^/J	.	8f/	-tszy	-je	.
=20	=20	=20	=20	=20	=20	=20
8r	2G/ 2g	.	2g/	dług.	ślad?	.
8GGG^>/ 8GG	.	.	.	.	.	.
8AAA-^>/L 8AA-	.	.	.	.	.	.
8AAAn^>/J 8AAn	.	.	.	.	.	.
8BBB-^>/L 8BB-	4r	.	4r	.	.	.
8BBBn^>/J 8BBn	.	.	.	.	.	.
=21	=21	=21	=21	=21	=21	=21
!	!	!	!LO:TX:a:t=Bardzo wolno	!	!	!LO:DY:a
4CC^>/ 4C	8.ee-\L 8.eee-	f	8.ee-\	Jak	.	f
.	16bn\Jk 16bbn	.	16bn\	sze-	.	.
4E-\ 4G 4c	4dd\ 4ddd	.	4dd\	-ro-	.	.
4E-\ 4G 4c	4cc\ 4ccc	.	4cc\	-ka	.	.
=22	=22	=22	=22	=22	=22	=22
4FFF^>/ 4FF	4.b-X\ 4.bb-X	.	4.b-X\	zie-	.	.
4C\ 4F 4A- 4c	.	.	.	.	.	.
.	8a-\ 8aa-	.	8a-/	-mia	.	.
4C\ 4F 4A- 4c	8f/L 8ff	.	8f/	na-	.	.
.	8e-/J 8ee-	.	8e-/	-sza	.	.
!LO:LB:g=original	!	!	!	!	!	!
=23	=23	=23	=23	=23	=23	=23
4BBB-/ 4BB-	8.d/L 8.a- 8.b- 8.dd	.	8.d/	Na	.	.
.	16e-/Jk 16ee-	.	16e-/	niej	.	.
4D\ 4F 4A- 4B- 4d	4f\ 4b- 4dd 4ff	.	4f/	je-	.	.
4F\ 4A- 4B- 4d	4a-\ 4dd 4ff 4aa-	.	4g/	-den	.	.
=24	=24	=24	=24	=24	=24	=24
*	*^	*	*	*	*	*
*	*	*^	*	*	*	*	*
8.BB-\L 8.B-	8.a-/L 8.dd-X 8.ff-X 8.aa-	4ryy	4ryy	.	8.a-/	tyl-	.	.
16BB-\Jk 16B-	16g/Jk 16gg	.	.	.	16g/	-ko	.	.
4BB-^\ 4B-	4cc\ 4een\	2g\	2gg^/	.	2g/	grób,	.	.
4BBn^\ 4Bn	4dd-^\ 4ff-\	.	.	.	.	.	.	.
*	*v	*v	*v	*	*	*	*	*
=25	=25	=25	=25	=25	=25	=25
!	!	!	!LO:TX:a:t=Żywo	!	!	!
4CC^>/ 4C	4.een\ 4.eeen	ff	4.een\	Da-	.	.
4En^\ 4G 4c	.	.	.	.	.	.
.	8bn\L 8bbn	.	8bn\	-lej	.	.
4E^\ 4A- 4d	8dd\ 8ddd	.	8dd\	bra-	.	.
.	8cc\J 8ccc	.	8cc\	-cia	.	.
!!pagebreak:original
=26	=26	=26	=26	=26	=26	=26
4FFF^>/ 4FF	8bn\L 8bbn	.	8bn\	w gó-	.	.
.	8an\J 8aan	.	8an/	-rę	.	.
4F\ 4An 4c 4d	4.ff\ 4.fff	.	4.ff\	cza-	.	.
4F\ 4A-X 4c 4d	.	.	.	.	.	.
.	8a-X\ 8aa-X	.	8a-X/	-sza!	.	.
=27	=27	=27	=27	=27	=27	=27
!	!LO:TX:t=P:problem:klamra łukowa z cyfrą	!	!	!	!	!
!	!LO:tup:a	!	!	!	!	!
4GGG^>/ 4GG	12f#X\L 12ff#X	.	8.g/	Przy-	.	.
.	12g\ 12gg	.	.	.	.	.
.	12bn\J 12bbn	.	.	.	.	.
.	.	.	16g/	-szłość	.	.
!LO:TX:t=P:problem:klamra łukowa z cyfrą	!	!	!	!	!	!
!LO:tup:a	!	!	!	!	!	!
12An\L	4.een\ 4.eeen	.	4.een\	to	.	.
12B-\	.	.	.	.	.	.
12d\J	.	.	.	.	.	.
8g\L	.	.	.	.	.	.
8fn\J	8dd\ 8ddd	.	8dd\	nasz	.	.
!LO:LB:g=original	!	!	!	!	!	!
=28	=28	=28	=28	=28	=28	=28
8.C\L 8.G 8.en	8.cc\L 8.ccc	.	8.cc\	wię-	.	.
!	!LO:TX:t=P:problem:sic&colon;s=16bbn	!	!	!	!	!
!	!LO:TX:t=P:problem:sic&colon;s=16bn	!	!	!	!	!
16d#X\Jk	16b-\Jk 16bb-	.	16bn\	-kszy	.	.
4e\	2cc\ 2ccc	.	2cc\	ślub!	.	.
4CC/ 4C	.	.	.	.	.	.
=29	=29	=29	=29	=29	=29	=29
!	!LO:TX:a:t=Wolno	!	!	!	!	!
4FFF/ 4FF	8.cc\L 8.aa- 8.ccc	f	2.r	.	.	.
.	16cc\Jk 16aa- 16ccc	.	.	.	.	.
4C\ 4F 4A-	4b-\ 4gg 4bb-	.	.	.	.	.
4C\ 4F 4A-	4a-\ 4ff 4aa-	.	.	.	.	.
=30	=30	=30	=30	=30	=30	=30
4GG^>/ 4C 4E- 4G	4g\ 4ee- 4gg	.	2.r	.	.	.
4AA-^>/ 4C 4E- 4A-	4cc\ 4aa- 4ccc	.	.	.	.	.
4r	4r	.	.	.	.	.
=31	=31	=31	=31	=31	=31	=31
!	!LO:TX:a:t=Bardzo żywo	!	!	!	!	!
8DDD-X^>/L 8DD-X	8.r	ff	2.r	.	.	.
16r	.	.	.	.	.	.
16FFF/Jk 16FF	16a-^\ 16aa-	.	.	.	.	.
4GGG^>/ 4GG	4g^\ 4cc 4ee- 4gg	.	.	.	.	.
4GGG^>/ 4GG	4d^/ 4f 4g 4bn	.	.	.	.	.
=32	=32	=32	=32	=32	=32	=32
4CC^>/ 4C	4c^/ 4e- 4g 4cc	.	2.r;	.	.	.
*8va	*	*	*	*	*	*
4C^>/ 4E- 4G 4c	4cc^\ 4ee- 4gg 4ccc	.	.	.	.	.
4r;	4r;	.	.	.	.	.
*X8va	*	*	*	*	*	*
=:|!	=:|!	=:|!	=:|!	=:|!	=:|!	=:|!
*-	*-	*-	*-	*-	*-	*-
!!!system-decoration: {s1,{s2,s3}}
!!!RDF**kern: > = above
!!!RDF**kern: < = below
!!!ENC:Anastazja Marusiak
!!!END:2021-05-12
